src/images/icons/pin-icon.svg

<svg width="110" height="111" viewBox="0 0 110 111" fill="none" xmlns="http://www.w3.org/2000/svg">
<path d="M18.3334 46.512C18.3334 -3.28265 91.6667 -3.28229 91.6667 46.512C91.6667 69.8824 71.7222 88.3281 61.2527 96.4009C59.4319 97.8049 58.5214 98.5069 57.0216 98.9103C55.9091 99.2095 54.093 99.2095 52.9805 98.9103C51.4807 98.507 50.5702 97.805 48.7493 96.401C38.2793 88.3283 18.3334 69.8825 18.3334 46.512Z" fill="#F03E3E"/>
<circle cx="55" cy="108" r="3" fill="#F03E3E"/>
<path d="M39 50.5V35H48.5013V45.7551H70.7949V66H61.3466L61.336 60.4274L61.3201 54.8495L54.9134 54.8337L48.5013 54.8231L48.4907 60.3957L48.4748 65.9736L43.74 65.9895L39 66V50.5Z" fill="white"/>
<path d="M61.2565 39.7692V35H70.7949V35.3414C70.7949 36.3983 70.5002 37.7098 70.0018 38.8479C68.78 41.6607 66.3525 43.6713 63.3892 44.3163C62.9015 44.4247 61.9049 44.5385 61.4601 44.5385H61.2565V39.7692Z" fill="#333333"/>
</svg>

<svg width="110" height="111" fill="none" xmlns="http://www.w3.org/2000/svg"><path d="M18.333 46.512c0-49.795 73.334-49.794 73.334 0 0 23.37-19.945 41.816-30.414 49.889-1.821 1.404-2.732 2.106-4.231 2.51-1.113.299-2.929.299-4.041 0-1.5-.404-2.41-1.106-4.232-2.51-10.47-8.073-30.416-26.519-30.416-49.889Z" fill="#F03E3E"/><circle cx="55" cy="108" r="3" fill="#F03E3E"/><path d="M39 50.5V35h9.501v10.755h22.294V66h-9.448l-.011-5.573-.016-5.578-6.407-.015-6.412-.01-.01 5.572-.016 5.578-4.735.016L39 66V50.5Z" fill="#fff"/><path d="M61.257 39.77V35h9.538v.341c0 1.057-.295 2.369-.793 3.507-1.222 2.813-3.65 4.823-6.613 5.468-.488.109-1.484.222-1.929.222h-.203V39.77Z" fill="#333"/></svg>
